X: 141
T: The Irish Wedding, a Favourite Dance
B: John Pringle "Collection of Reels Strathspeys & Jigs", 1801 p.14#1
Z: 2011 John Chambers <jc:trillian.mit.edu>
R: jig
M: 6/8
L: 1/8
K: C
V: 1
((3G/A/B/) |\
c2G GEG | A2G GAB | c2c d2d | e2c cde |\
f2f e2e | d2d BGB | cBA EFG | A2G G2 :|
(e/f/) |\
g2g e2e | g2g e2e | ggg eee | f2d def |\
g2e f2d | e2c d2B | cBA EFG | A2G G2e/f/ |
gc'g ece | gc'g ece | gc'g ece | f2d def |\
g2e f2d | e2c d2B | c2A GEG | a2c c2 |]
V: 2 clef=bass middle=d
z | c3 e3 | f3 e3 | c3 g3 | c3 c'3 | d'3 c'3 | b3 g3 | e3 c3 | [f3c3] [e2c2] :|
z | e3 g3 | e3 g3 | e3 g3 | d3 g3 | c'3 d'3 | c'3 b3 | e3 c3 [f3c3] [e3c3] |
c3 c'3 | c3 c'3 | c3 c'3 | d'3 g3 | e2c' b2g | c'2c g2G | e3 c3 | [f3c3] [e2c2] |]

%%sep 2 1 500

